polaris-icons/icons/new-icons/ReturnsMajor.svg

<svg width="20" height="20" viewBox="0 0 20 20" fill="none" xmlns="http://www.w3.org/2000/svg">
<path fill-rule="evenodd" clip-rule="evenodd" d="M15 11.25V8H5V14.75C5 14.8881 5.11193 15 5.25 15H9.25C9.66421 15 10 15.3358 10 15.75C10 16.1642 9.66421 16.5 9.25 16.5H5.25C4.2835 16.5 3.5 15.7165 3.5 14.75V7.88657C3.5 7.31712 3.67678 6.76171 4.00593 6.29703L5.31463 4.44946C5.73645 3.85394 6.4209 3.5 7.15068 3.5H12.9472C13.6995 3.5 14.402 3.87598 14.8193 4.50192L16.0381 6.33013C16.3393 6.78186 16.5 7.31263 16.5 7.85555V11.25C16.5 11.6642 16.1642 12 15.75 12C15.3358 12 15 11.6642 15 11.25ZM6.53866 5.31649C6.67927 5.11798 6.90742 5 7.15068 5H9.25V6.5H5.70034L6.53866 5.31649ZM14.3486 6.5H10.75V5H12.9472C13.198 5 13.4322 5.12533 13.5713 5.33397L14.3486 6.5Z" fill="#4A4A4A"/>
<path fill-rule="evenodd" clip-rule="evenodd" d="M6 10C6 9.44771 6.44772 9 7 9H11C11.5523 9 12 9.44772 12 10V13C12 13.5523 11.5523 14 11 14H7C6.44771 14 6 13.5523 6 13V10ZM7.5 10.5V12.5H10.5V10.5H7.5Z" fill="#4A4A4A"/>
<path d="M17.5 13C17.5 12.5858 17.1642 12.25 16.75 12.25C16.3358 12.25 16 12.5858 16 13V13.5C16 14.4665 15.2165 15.25 14.25 15.25H13.3107L13.5303 15.0303C13.8232 14.7374 13.8232 14.2626 13.5303 13.9697C13.2374 13.6768 12.7626 13.6768 12.4697 13.9697L10.9697 15.4697C10.6768 15.7626 10.6768 16.2374 10.9697 16.5303L12.4697 18.0303C12.7626 18.3232 13.2374 18.3232 13.5303 18.0303C13.8232 17.7374 13.8232 17.2626 13.5303 16.9697L13.3107 16.75H14.25C16.0449 16.75 17.5 15.2949 17.5 13.5V13Z" fill="#4A4A4A"/>
</svg>

<svg viewBox="0 0 20 20" xmlns="http://www.w3.org/2000/svg"><path fill-rule="evenodd" d="M15 11.25v-3.25h-10v6.75c0 .138.112.25.25.25h4a.75.75 0 0 1 0 1.5h-4a1.75 1.75 0 0 1-1.75-1.75v-6.863c0-.57.177-1.125.506-1.59l1.309-1.848a2.25 2.25 0 0 1 1.836-.949h5.796a2.25 2.25 0 0 1 1.872 1.002l1.22 1.828c.3.452.461.983.461 1.526v3.394a.75.75 0 0 1-1.5 0Zm-8.461-5.934a.75.75 0 0 1 .612-.316h2.099v1.5h-3.55l.839-1.184Zm7.81 1.184h-3.599v-1.5h2.197a.75.75 0 0 1 .624.334l.778 1.166Z" fill="#5C5F62"/><path fill-rule="evenodd" d="M6 10a1 1 0 0 1 1-1h4a1 1 0 0 1 1 1v3a1 1 0 0 1-1 1h-4a1 1 0 0 1-1-1v-3Zm1.5.5v2h3v-2h-3Z" fill="#5C5F62"/><path d="M17.5 13a.75.75 0 0 0-1.5 0v.5a1.75 1.75 0 0 1-1.75 1.75h-.94l.22-.22a.75.75 0 1 0-1.06-1.06l-1.5 1.5a.75.75 0 0 0 0 1.06l1.5 1.5a.75.75 0 1 0 1.06-1.06l-.22-.22h.94a3.25 3.25 0 0 0 3.25-3.25v-.5Z" fill="#5C5F62"/></svg>
